**harmony	**harte	**kern	**silbe	**rhyme	**timestamp	**phrase
*M4/4	*M4/4	*ICvox	*	*	*	*
*	*	*VRlead	*	*	*	*
*	*	*Hstimme	*	*	*	*
*A:	*A:	*A:	*	*	*	*
*	*	*M4/4	*	*	*	*
*	*	*clefF4	*	*	*	*
1r;	1r	r;	.	.	0	.
=1	=1	=1	=1	=1	=1	=1
1AM	A:maj	1r	.	.	0.65	.
=2	=2	=2	=2	=2	=2	=2
1AM	A:maj	1r	.	.	0.982	.
=3	=3	=3	=3	=3	=3	=3
1AM	A:maj	1r	.	.	3.798	newline
=4	=4	=4	=4	=4	=4	=4
1DM	D:maj	1r	.	.	5.126	.
=5	=5	=5	=5	=5	=5	=5
1EMm	E:7	1r	.	.	6.454	.
=6	=6	=6	=6	=6	=6	=6
1AM	A:maj	1r	.	.	7.782	.
=7	=7	=7	=7	=7	=7	=7
1AM	A:maj	2r	.	.	9.11	.
.	.	4r	.	.	.	.
.	.	4A	In	.	.	.
=8	=8	=8	=8	=8	=8	=8
*>Letter>B	*>Letter>B	*>Letter>B	*>Letter>B	*>Letter>B	*>Letter>B	*>Letter>B
*>Label>Verse	*>Label>Verse	*>Label>Verse	*>Label>Verse	*>Label>Verse	*>Label>Verse	*>Label>Verse
1AM	A:maj	4c#	eight-	.	10.438	newline
.	.	4e	-teen	.	.	.
.	.	4c#	four-	.	.	.
.	.	8A	-teen	.	.	.
.	.	8A	we	.	.	.
=9	=9	=9	=9	=9	=9	=9
1DM	D:maj	8B	took	.	11.775	.
.	.	8c#	a	.	.	.
.	.	8B	lit-	.	.	.
.	.	8A	-tle	.	.	.
.	.	4F#	trip	A	.	.
.	.	8r	.	.	.	.
.	.	8A	A-	.	.	.
=10	=10	=10	=10	=10	=10	=10
1EMm	E:7	8B	-long	.	13.112	.
.	.	8B	with	.	.	.
.	.	8B	Col-	.	.	.
.	.	8c#	-onel	.	.	.
.	.	8B	Jack-	.	.	.
.	.	8A	-son	.	.	.
.	.	8F#	down	.	.	.
.	.	8E	the	.	.	.
=11	=11	=11	=11	=11	=11	=11
1AM	A:maj	8A	migh-	.	14.449	.
.	.	8F#	-ty	.	.	.
.	.	8E	Mi-	.	.	.
.	.	8C#	-ssi-	.	.	.
.	.	4AA	-ssipp	A	.	.
.	.	8r	.	.	.	.
.	.	8A	We	.	.	.
=12	=12	=12	=12	=12	=12	=12
1AM	A:maj	8c#	took	.	15.786	newline
.	.	8B#	a	.	.	.
.	.	8c#	lit-	.	.	.
.	.	8B#	-tle	.	.	.
.	.	8c#	ba-	.	.	.
.	.	8B	-con	.	.	.
.	.	8A	and	.	.	.
.	.	8A	we	.	.	.
=13	=13	=13	=13	=13	=13	=13
1DM	D:maj	8B	took	.	17.143	.
.	.	8A	a	.	.	.
.	.	8B	lit-	.	.	.
.	.	8A	-tle	.	.	.
.	.	4F#	beans	B	.	.
.	.	8F#	And	.	.	.
.	.	8A	we	.	.	.
=14	=14	=14	=14	=14	=14	=14
1EMm	E:7	8B	caught	.	18.501	.
.	.	8A	the	.	.	.
.	.	8B	bloo-	.	.	.
.	.	8c#	-dy	.	.	.
.	.	8B	Bri-	.	.	.
.	.	8A	-tish	.	.	.
.	.	8F#	in	.	.	.
.	.	8E	the	.	.	.
=15	=15	=15	=15	=15	=15	=15
1AM	A:maj	8A	town	.	19.858	.
.	.	8A	of	.	.	.
.	.	8F#	New	.	.	.
.	.	8E	Or-	.	.	.
.	.	4AA	-leans	B	.	.
.	.	8r	.	.	.	.
.	.	8AA	We	.	.	.
=16	=16	=16	=16	=16	=16	=16
*>Letter>C	*>Letter>C	*>Letter>C	*>Letter>C	*>Letter>C	*>Letter>C	*>Letter>C
*>Label>Chorus	*>Label>Chorus	*>Label>Chorus	*>Label>Chorus	*>Label>Chorus	*>Label>Chorus	*>Label>Chorus
1AM	A:maj	4C#	fire	.	21.216	newline
.	.	4E	our	.	.	.
.	.	4E	guns	.	.	.
.	.	8E	and	.	.	.
.	.	8C#	the	.	.	.
=17	=17	=17	=17	=17	=17	=17
1AM	A:maj	8E	Bri-	.	22.576	.
.	.	8E	-tish	.	.	.
.	.	8E	kept	.	.	.
.	.	8C#	a	.	.	.
.	.	8BB	com-	(C	.	.
.	.	8AA	-in'	c)	.	.
.	.	8r	.	.	.	.
.	.	8AA	There	.	.	.
=18	=18	=18	=18	=18	=18	=18
1AM	A:maj	8C#	wa-	.	23.936	.
.	.	8E	-sn't	.	.	.
.	.	8E	nigh	.	.	.
.	.	8E	as	.	.	.
.	.	8E	ma-	.	.	.
.	.	8E	-ny	.	.	.
.	.	8E	as	.	.	.
.	.	8E	there	.	.	.
=19	=19	=19	=19	=19	=19	=19
2EM	E:maj	8E	was	.	25.296	.
.	.	8AA	a	.	.	.
.	.	8BB	while	.	.	.
.	.	8GG#	a-	.	.	.
2AM	A:maj	4AA	-go	D	25.976	.
.	.	8r	.	.	.	.
.	.	8AA	We	.	.	.
=20	=20	=20	=20	=20	=20	=20
1AM	A:maj	4C#	fire	.	26.656	newline
.	.	4E	once	.	.	.
.	.	4E	more	.	.	.
.	.	8C#	and	.	.	.
.	.	[8E	they	.	.	.
=21	=21	=21	=21	=21	=21	=21
1AM	A:maj	8E]	_	.	28.009	.
.	.	8F#	be-	.	.	.
.	.	8E	-gan	.	.	.
.	.	8C#	to	.	.	.
.	.	8BB	run-	(C	.	.
.	.	8AA	-nin'	c)	.	.
.	.	8r	.	.	.	.
.	.	8AA	On	.	.	.
=22	=22	=22	=22	=22	=22	=22
1AM	A:maj	8C#	down	.	29.363	.
.	.	8E	the	.	.	.
.	.	8E	Mi-	.	.	.
.	.	8E	-ssi-	.	.	.
.	.	8E	-ssi-	.	.	.
.	.	8E	-ppi	.	.	.
.	.	8E	to	.	.	.
.	.	8E	the	.	.	.
=23	=23	=23	=23	=23	=23	=23
2EM	E:maj	8E	Gulf	.	30.716	.
.	.	8AA	of	.	.	.
.	.	8BB	Me-	.	.	.
.	.	8GG#	-xi-	.	.	.
2AM	A:maj	2AA	-co	D	31.393	.
=24	=24	=24	=24	=24	=24	=24
1AM	A:maj	1r	.	.	32.07	.
=25	=25	=25	=25	=25	=25	=25
1AM	A:maj	2.r	.	.	33.424	.
.	.	4B#	We	.	.	.
=26	=26	=26	=26	=26	=26	=26
*>Letter>B	*>Letter>B	*>Letter>B	*>Letter>B	*>Letter>B	*>Letter>B	*>Letter>B
*>Label>Verse	*>Label>Verse	*>Label>Verse	*>Label>Verse	*>Label>Verse	*>Label>Verse	*>Label>Verse
1AM	A:maj	8c#	looked	.	34.777	newline
.	.	8r	.	.	.	.
.	.	8c#	down	.	.	.
.	.	8B#	the	.	.	.
.	.	8c#	ri-	.	.	.
.	.	8B	-ver	.	.	.
.	.	8A	and	.	.	.
.	.	8A	we	.	.	.
=27	=27	=27	=27	=27	=27	=27
1DM	D:maj	8B	seed	.	36.139	.
.	.	8A	the	.	.	.
.	.	8B	Bri-	.	.	.
.	.	8A	-tish	.	.	.
.	.	4F#	come	C	.	.
.	.	8A	And	.	.	.
.	.	8A	there	.	.	.
=28	=28	=28	=28	=28	=28	=28
1EMm	E:7	8B	must	.	37.501	.
.	.	8B	have	.	.	.
.	.	8B	been	.	.	.
.	.	8c#	a	.	.	.
.	.	8B	hun-	.	.	.
.	.	8A	-dred	.	.	.
.	.	8F#	of	.	.	.
.	.	8E	'em	.	.	.
=29	=29	=29	=29	=29	=29	=29
1AM	A:maj	8A	bea-	.	38.863	.
.	.	8A	-tin'	.	.	.
.	.	8A	on	.	.	.
.	.	8A	the	.	.	.
.	.	4E	drum	C	.	.
.	.	8r	.	.	.	.
.	.	8A	They	.	.	.
=30	=30	=30	=30	=30	=30	=30
1AM	A:maj	4c#	stepped	.	40.225	newline
.	.	8c#	so	.	.	.
.	.	8B#	_	.	.	.
.	.	8c#	high	.	.	.
.	.	8B	_	.	.	.
.	.	8A	and	.	.	.
.	.	8A	they	.	.	.
=31	=31	=31	=31	=31	=31	=31
1DM	D:maj	8B	made	.	41.584	.
.	.	8A	their	.	.	.
.	.	8B	bu-	.	.	.
.	.	8A	-gles	.	.	.
.	.	4F#	ring	E	.	.
.	.	8r	.	.	.	.
.	.	8A	We	.	.	.
=32	=32	=32	=32	=32	=32	=32
1EMm	E:7	8B	stood	.	42.943	.
.	.	8A	be-	.	.	.
.	.	8B	-hind	.	.	.
.	.	8A	our	.	.	.
.	.	8B	cot-	.	.	.
.	.	8A	-ton	.	.	.
.	.	8F#	bales	.	.	.
.	.	8E	and	.	.	.
=33	=33	=33	=33	=33	=33	=33
1AM	A:maj	8A	di-	.	44.302	.
.	.	8A	-dn't	.	.	.
.	.	8A	say	.	.	.
.	.	8A	a	.	.	.
.	.	4AA	thing	E	.	.
.	.	8r	.	.	.	.
.	.	8AA	We	.	.	.
=34	=34	=34	=34	=34	=34	=34
*>Letter>C	*>Letter>C	*>Letter>C	*>Letter>C	*>Letter>C	*>Letter>C	*>Letter>C
*>Label>Chorus	*>Label>Chorus	*>Label>Chorus	*>Label>Chorus	*>Label>Chorus	*>Label>Chorus	*>Label>Chorus
1AM	A:maj	4C#	fire	.	45.661	newline
.	.	4E	our	.	.	.
.	.	4E	guns	.	.	.
.	.	8E	and	.	.	.
.	.	8C#	the	.	.	.
=35	=35	=35	=35	=35	=35	=35
1AM	A:maj	8E	Bri-	.	47.034	.
.	.	8E	-tish	.	.	.
.	.	8E	kept	.	.	.
.	.	8C#	a	.	.	.
.	.	8BB	com-	(C	.	.
.	.	8AA	-in'	c)	.	.
.	.	8r	.	.	.	.
.	.	8AA	There	.	.	.
=36	=36	=36	=36	=36	=36	=36
1AM	A:maj	8C#	wa-	.	48.406	.
.	.	8E	-sn't	.	.	.
.	.	8E	nigh	.	.	.
.	.	8E	as	.	.	.
.	.	8E	ma-	.	.	.
.	.	8E	-ny	.	.	.
.	.	8E	as	.	.	.
.	.	8E	there	.	.	.
=37	=37	=37	=37	=37	=37	=37
2EM	E:maj	8E	was	.	49.779	.
.	.	8AA	a	.	.	.
.	.	8BB	while	.	.	.
.	.	8GG#	a-	.	.	.
2AM	A:maj	4AA	-go	D	50.465	.
.	.	8r	.	.	.	.
.	.	8AA	We	.	.	.
=38	=38	=38	=38	=38	=38	=38
1AM	A:maj	4C#	fire	.	51.151	newline
.	.	4E	once	.	.	.
.	.	4E	more	.	.	.
.	.	8C#	and	.	.	.
.	.	[8E	they	.	.	.
=39	=39	=39	=39	=39	=39	=39
1AM	A:maj	8E]	_	.	52.498	.
.	.	8F#	be-	.	.	.
.	.	8E	-gan	.	.	.
.	.	8C#	to	.	.	.
.	.	8BB	run-	(C	.	.
.	.	8AA	-nin'	c)	.	.
.	.	8r	.	.	.	.
.	.	8AA	On	.	.	.
=40	=40	=40	=40	=40	=40	=40
1AM	A:maj	8C#	down	.	53.844	.
.	.	8E	the	.	.	.
.	.	8E	Mi-	.	.	.
.	.	8E	-ssi-	.	.	.
.	.	8E	-ssi-	.	.	.
.	.	8E	-ppi	.	.	.
.	.	8E	to	.	.	.
.	.	8E	the	.	.	.
=41	=41	=41	=41	=41	=41	=41
2EM	E:maj	8E	Gulf	.	55.19	.
.	.	8AA	of	.	.	.
.	.	8BB	Me-	.	.	.
.	.	8GG#	-xi-	.	.	.
2AM	A:maj	2AA	-co	D	55.864	.
=42	=42	=42	=42	=42	=42	=42
1AM	A:maj	1r	.	.	56.537	.
=43	=43	=43	=43	=43	=43	=43
1AM	A:maj	2.r	.	.	57.883	.
.	.	4A	Old	.	.	.
=44	=44	=44	=44	=44	=44	=44
*>Letter>B	*>Letter>B	*>Letter>B	*>Letter>B	*>Letter>B	*>Letter>B	*>Letter>B
*>Label>Verse	*>Label>Verse	*>Label>Verse	*>Label>Verse	*>Label>Verse	*>Label>Verse	*>Label>Verse
1AM	A:maj	8c#	Hi-	.	59.23	newline
.	.	8r	.	.	.	.
.	.	4c#	-ckory	.	.	.
.	.	8c#	said	.	.	.
.	.	8r	.	.	.	.
.	.	8A	we	.	.	.
.	.	8A	could	.	.	.
=45	=45	=45	=45	=45	=45	=45
1DM	D:maj	8B	take	.	60.585	.
.	.	8A	'em	.	.	.
.	.	8B	by	.	.	.
.	.	8A	sur-	.	.	.
.	.	4F#	-prise	F	.	.
.	.	8F#	If	.	.	.
.	.	8A	we	.	.	.
=46	=46	=46	=46	=46	=46	=46
1EMm	E:7	8B	di-	.	61.941	.
.	.	8A#	-dn't	.	.	.
.	.	8B	fire	.	.	.
.	.	8c#	our	.	.	.
.	.	8B	musk-	.	.	.
.	.	8A	-ets	.	.	.
.	.	8F#	'till	.	.	.
.	.	8E	we	.	.	.
=47	=47	=47	=47	=47	=47	=47
1AM	A:maj	8A	looked	.	63.297	.
.	.	8A	'em	.	.	.
.	.	8A	in	.	.	.
.	.	8A	the	.	.	.
.	.	4E	eyes	F	.	.
.	.	8r	.	.	.	.
.	.	8A	We	.	.	.
=48	=48	=48	=48	=48	=48	=48
1AM	A:maj	4c#	held	.	64.653	newline
.	.	4c#	our	.	.	.
.	.	8c#	fire	.	.	.
.	.	8B	_	.	.	.
.	.	8A	'till	.	.	.
.	.	8A	we	.	.	.
=49	=49	=49	=49	=49	=49	=49
1DM	D:maj	8B	seed	.	65.892	.
.	.	8A	their	.	.	.
.	.	8B	fa-	.	.	.
.	.	8A	-ces	.	.	.
.	.	4F#	well	.	.	.
.	.	8A	Then	.	.	.
.	.	8A	we	.	.	.
=50	=50	=50	=50	=50	=50	=50
1EMm	E:7	8B	open-	.	67.13	.
.	.	8A	-ed	.	.	.
.	.	8B	up	.	.	.
.	.	8A	our	.	.	.
.	.	8B	squi-	.	.	.
.	.	8A	-rrel	.	.	.
.	.	8F#	guns	.	.	.
.	.	8E	and	.	.	.
=51	=51	=51	=51	=51	=51	=51
1AM;	A:maj	8A	rea-	.	68.369	.
.	.	8A	-lly	.	.	.
.	.	8A	gave	.	.	.
.	.	8A	'em	.	.	.
.	.	4A	Well	.	.	.
.	.	4E	We	.	.	.
=52	=52	=52	=52	=52	=52	=52
*>Letter>C	*>Letter>C	*>Letter>C	*>Letter>C	*>Letter>C	*>Letter>C	*>Letter>C
*>Label>Chorus	*>Label>Chorus	*>Label>Chorus	*>Label>Chorus	*>Label>Chorus	*>Label>Chorus	*>Label>Chorus
1AM	A:maj	4C#	fire	.	70.846	newline
.	.	4E	our	.	.	.
.	.	4E	guns	.	.	.
.	.	8E	and	.	.	.
.	.	8C#	the	.	.	.
=53	=53	=53	=53	=53	=53	=53
1AM	A:maj	8E	Bri-	.	72.22	.
.	.	8E	-tish	.	.	.
.	.	8E	kept	.	.	.
.	.	8C#	a	.	.	.
.	.	8BB	com-	(C	.	.
.	.	8AA	-in'	c)	.	.
.	.	8r	.	.	.	.
.	.	8AA	There	.	.	.
=54	=54	=54	=54	=54	=54	=54
1AM	A:maj	8C#	wa-	.	73.594	.
.	.	8E	-sn't	.	.	.
.	.	8E	nigh	.	.	.
.	.	8E	as	.	.	.
.	.	8E	ma-	.	.	.
.	.	8E	-ny	.	.	.
.	.	8E	as	.	.	.
.	.	8E	there	.	.	.
=55	=55	=55	=55	=55	=55	=55
2EM	E:maj	8E	was	.	74.968	.
.	.	8AA	a	.	.	.
.	.	8BB	while	.	.	.
.	.	8GG#	a-	.	.	.
2AM	A:maj	4AA	-go	D	75.655	.
.	.	8r	.	.	.	.
.	.	8AA	We	.	.	.
=56	=56	=56	=56	=56	=56	=56
1AM	A:maj	4C#	fire	.	76.342	newline
.	.	4E	once	.	.	.
.	.	4E	more	.	.	.
.	.	8C#	and	.	.	.
.	.	[8E	they	.	.	.
=57	=57	=57	=57	=57	=57	=57
1AM	A:maj	8E]	_	.	77.689	.
.	.	8F#	be-	.	.	.
.	.	8E	-gan	.	.	.
.	.	8C#	to	.	.	.
.	.	8BB	run-	(C	.	.
.	.	8AA	-nin'	c)	.	.
.	.	8r	.	.	.	.
.	.	8AA	On	.	.	.
=58	=58	=58	=58	=58	=58	=58
1AM	A:maj	8C#	down	.	79.036	.
.	.	8E	the	.	.	.
.	.	8E	Mi-	.	.	.
.	.	8E	-ssi-	.	.	.
.	.	8E	-ssi-	.	.	.
.	.	8E	-ppi	.	.	.
.	.	8E	to	.	.	.
.	.	8E	the	.	.	.
=59	=59	=59	=59	=59	=59	=59
2EM	E:maj	8E	Gulf	.	80.382	.
.	.	8AA	of	.	.	.
.	.	8BB	Me-	.	.	.
.	.	8GG#	-xi-	.	.	.
2AM	A:maj	4AA	-co	D	81.056	.
.	.	4r	.	.	.	.
=60	=60	=60	=60	=60	=60	=60
1AM	A:maj	1r	.	.	81.729	.
=61	=61	=61	=61	=61	=61	=61
1AM	A:maj	2.r	.	.	83.076	.
.	.	8e	Yeah	.	.	.
.	.	8e	they	.	.	.
=62	=62	=62	=62	=62	=62	=62
*>Letter>C2	*>Letter>C2	*>Letter>C2	*>Letter>C2	*>Letter>C2	*>Letter>C2	*>Letter>C2
*>Label>Bridge	*>Label>Bridge	*>Label>Bridge	*>Label>Bridge	*>Label>Bridge	*>Label>Bridge	*>Label>Bridge
1AM	A:maj	4e	ran	.	84.423	newline
.	.	8e	through	.	.	.
.	.	8e	the	.	.	.
.	.	8e	brier-	.	.	.
.	.	8e	-s	.	.	.
.	.	8e	and	.	.	.
.	.	8e	they	.	.	.
=63	=63	=63	=63	=63	=63	=63
1AM	A:maj	4e	ran	.	85.756	.
.	.	8e	through	.	.	.
.	.	8e	the	.	.	.
.	.	8B	bram-	.	.	.
.	.	8A	-bles	.	.	.
.	.	8A	And	.	.	.
.	.	8A	they	.	.	.
=64	=64	=64	=64	=64	=64	=64
1AM	A:maj	4c#	ran	.	87.09	.
.	.	8e	through	.	.	.
.	.	8e	the	.	.	.
.	.	8e	bu-	.	.	.
.	.	8e	-shes	.	.	.
.	.	8e	where	.	.	.
.	.	8e	a	.	.	.
=65	=65	=65	=65	=65	=65	=65
2EM	E:maj	8e	ra-	.	88.424	.
.	.	8A	-bbit	.	.	.
.	.	8B	coul-	.	.	.
.	.	8G#	-dn't	.	.	.
2AM	A:maj	4A	go	D	89.091	.
.	.	16e	_	.	.	.
.	.	16r	.	.	.	.
.	.	8A	They	.	.	.
=66	=66	=66	=66	=66	=66	=66
1AM	A:maj	4c#	ran	.	89.758	newline
.	.	4e	so	.	.	.
.	.	4e	fast	.	.	.
.	.	8e	that	.	.	.
.	.	8e	the	.	.	.
=67	=67	=67	=67	=67	=67	=67
1AM	A:maj	4e	hounds	.	91.116	.
.	.	8e	coul-	.	.	.
.	.	8e	-dn't	.	.	.
.	.	8B	catch	.	.	.
.	.	8A	'em	.	.	.
.	.	8r	.	.	.	.
.	.	8A	On	.	.	.
=68	=68	=68	=68	=68	=68	=68
1AM	A:maj	8c#	down	.	92.475	.
.	.	8e	the	.	.	.
.	.	8e	Mi-	.	.	.
.	.	8e	-ssi-	.	.	.
.	.	8e	-ssi-	.	.	.
.	.	8e	-ppi	.	.	.
.	.	8e	to	.	.	.
.	.	8e	the	.	.	.
=69	=69	=69	=69	=69	=69	=69
2EM	E:maj	8e	Gulf	.	93.834	.
.	.	8A	of	.	.	.
.	.	8B	Me-	.	.	.
.	.	8G#	-xi-	.	.	.
2AM	A:maj	2A	-co	D	94.513	.
=70	=70	=70	=70	=70	=70	=70
1AM	A:maj	1r	.	.	95.193	newline
=71	=71	=71	=71	=71	=71	=71
1AM	A:maj	1r	.	.	96.538	.
=72	=72	=72	=72	=72	=72	=72
1AM	A:maj	1r	.	.	97.883	.
=73	=73	=73	=73	=73	=73	=73
1AM	A:maj	2.r	.	.	99.228	.
.	.	4A	We	.	.	.
=74	=74	=74	=74	=74	=74	=74
*>Letter>B	*>Letter>B	*>Letter>B	*>Letter>B	*>Letter>B	*>Letter>B	*>Letter>B
*>Label>Verse	*>Label>Verse	*>Label>Verse	*>Label>Verse	*>Label>Verse	*>Label>Verse	*>Label>Verse
1AM	A:maj	4c#	fire	.	100.574	newline
.	.	4c#	our	.	.	.
.	.	8c#	can-	.	.	.
.	.	8B	-non	.	.	.
.	.	8A	'till	.	.	.
.	.	8A	the	.	.	.
=75	=75	=75	=75	=75	=75	=75
1DM	D:maj	8B	bar-	.	101.919	.
.	.	8A	-rel	.	.	.
.	.	8B	melt-	.	.	.
.	.	8A	-ed	.	.	.
.	.	4F#	down	G	.	.
.	.	8F#	So	.	.	.
.	.	8A	we	.	.	.
=76	=76	=76	=76	=76	=76	=76
1EMm	E:7	8B	grabbed	.	103.265	.
.	.	8A	an	.	.	.
.	.	8B	a-	.	.	.
.	.	8A	-lli-	.	.	.
.	.	8B	-ga-	.	.	.
.	.	8A	-tor	.	.	.
.	.	8F#	and	.	.	.
.	.	8E	we	.	.	.
=77	=77	=77	=77	=77	=77	=77
1AM	A:maj	8A	fought	.	104.611	.
.	.	8A	a-	.	.	.
.	.	8A	-no-	.	.	.
.	.	8A	-ther	.	.	.
.	.	4E	round	G	.	.
.	.	8r	.	.	.	.
.	.	8A	We	.	.	.
=78	=78	=78	=78	=78	=78	=78
1AM	A:maj	8c#	filled	.	105.957	newline
.	.	8B#	his	.	.	.
.	.	8c#	head	.	.	.
.	.	8B#	with	.	.	.
.	.	8c#	ca-	.	.	.
.	.	8B	-nnon-	.	.	.
.	.	8A	-balls	.	.	.
.	.	8A	'n	.	.	.
=79	=79	=79	=79	=79	=79	=79
1DM	D:maj	8B	pow-	.	107.31	.
.	.	8A	-dered	.	.	.
.	.	8B	his	.	.	.
.	.	8A	be-	.	.	.
.	.	4F#	-hind	H	.	.
.	.	8r	.	.	.	.
.	.	8A	And	.	.	.
=80	=80	=80	=80	=80	=80	=80
1EMm	E:7	8B	when	.	108.663	.
.	.	8A	we	.	.	.
.	.	8B	touched	.	.	.
.	.	8A	the	.	.	.
.	.	8B	pow-	.	.	.
.	.	8A	-der	.	.	.
.	.	8F#	off	.	.	.
.	.	8E	the	.	.	.
=81	=81	=81	=81	=81	=81	=81
1AM	A:maj	8A	ga-	.	110.017	.
.	.	8A	-tor	.	.	.
.	.	8A	lost	.	.	.
.	.	8A	his	.	.	.
.	.	4A	mind	H	.	.
.	.	8r	.	.	.	.
.	.	8AA	We	.	.	.
=82	=82	=82	=82	=82	=82	=82
*>Letter>C	*>Letter>C	*>Letter>C	*>Letter>C	*>Letter>C	*>Letter>C	*>Letter>C
*>Label>Chorus	*>Label>Chorus	*>Label>Chorus	*>Label>Chorus	*>Label>Chorus	*>Label>Chorus	*>Label>Chorus
1AM	A:maj	4C#	fire	.	111.37	newline
.	.	4E	our	.	.	.
.	.	4E	guns	.	.	.
.	.	8E	and	.	.	.
.	.	8C#	the	.	.	.
=83	=83	=83	=83	=83	=83	=83
1AM	A:maj	8E	Bri-	.	112.738	.
.	.	8E	-tish	.	.	.
.	.	8E	kept	.	.	.
.	.	8C#	a	.	.	.
.	.	8BB	com-	(C	.	.
.	.	8AA	-in'	c)	.	.
.	.	8r	.	.	.	.
.	.	8AA	There	.	.	.
=84	=84	=84	=84	=84	=84	=84
1AM	A:maj	8C#	wa-	.	114.106	.
.	.	8E	-sn't	.	.	.
.	.	8E	nigh	.	.	.
.	.	8E	as	.	.	.
.	.	8E	ma-	.	.	.
.	.	8E	-ny	.	.	.
.	.	8E	as	.	.	.
.	.	8E	there	.	.	.
=85	=85	=85	=85	=85	=85	=85
2EM	E:maj	8E	was	.	115.474	.
.	.	8AA	a	.	.	.
.	.	8BB	while	.	.	.
.	.	8GG#	a-	.	.	.
2AM	A:maj	4AA	-go	D	116.158	.
.	.	8r	.	.	.	.
.	.	8AA	We	.	.	.
=86	=86	=86	=86	=86	=86	=86
1AM	A:maj	4C#	fire	.	116.842	newline
.	.	4E	once	.	.	.
.	.	4E	more	.	.	.
.	.	8C#	and	.	.	.
.	.	[8E	they	.	.	.
=87	=87	=87	=87	=87	=87	=87
1AM	A:maj	8E]	_	.	118.19	.
.	.	8F#	be-	.	.	.
.	.	8E	-gan	.	.	.
.	.	8C#	to	.	.	.
.	.	8BB	run-	(C	.	.
.	.	8AA	-nin'	c)	.	.
.	.	8r	.	.	.	.
.	.	8AA	On	.	.	.
=88	=88	=88	=88	=88	=88	=88
1AM	A:maj	8C#	down	.	119.539	.
.	.	8E	the	.	.	.
.	.	8E	Mi-	.	.	.
.	.	8E	-ssi-	.	.	.
.	.	8E	-ssi-	.	.	.
.	.	8E	-ppi	.	.	.
.	.	8E	to	.	.	.
.	.	8E	the	.	.	.
=89	=89	=89	=89	=89	=89	=89
2EM	E:maj	8E	Gulf	.	120.888	.
.	.	8AA	of	.	.	.
.	.	8BB	Me-	.	.	.
.	.	8GG#	-xi-	.	.	.
2AM	A:maj	2AA	-co	D	121.562	.
=90	=90	=90	=90	=90	=90	=90
1AM	A:maj	1r	.	.	122.237	.
=91	=91	=91	=91	=91	=91	=91
1AM	A:maj	2.r	.	.	123.586	.
.	.	8e	Yeah	.	.	.
.	.	8e	they	.	.	.
=92	=92	=92	=92	=92	=92	=92
*>Letter>C3	*>Letter>C3	*>Letter>C3	*>Letter>C3	*>Letter>C3	*>Letter>C3	*>Letter>C3
*>Label>Bridge	*>Label>Bridge	*>Label>Bridge	*>Label>Bridge	*>Label>Bridge	*>Label>Bridge	*>Label>Bridge
1AM	A:maj	4e	ran	.	124.934	newline
.	.	8e	through	.	.	.
.	.	8e	the	.	.	.
.	.	8e	brier-	.	.	.
.	.	8e	-s	.	.	.
.	.	8e	and	.	.	.
.	.	8e	they	.	.	.
=93	=93	=93	=93	=93	=93	=93
1AM	A:maj	4e	ran	.	126.286	.
.	.	8e	through	.	.	.
.	.	8e	the	.	.	.
.	.	8B	bram-	.	.	.
.	.	8A	-bles	.	.	.
.	.	8A	And	.	.	.
.	.	8A	they	.	.	.
=94	=94	=94	=94	=94	=94	=94
1AM	A:maj	4c#	ran	.	127.638	.
.	.	8e	through	.	.	.
.	.	8e	the	.	.	.
.	.	8e	bu-	.	.	.
.	.	8e	-shes	.	.	.
.	.	8e	where	.	.	.
.	.	8e	a	.	.	.
=95	=95	=95	=95	=95	=95	=95
2EM	E:maj	8e	ra-	.	128.99	.
.	.	8A	-bbit	.	.	.
.	.	8B	coul-	.	.	.
.	.	8G#	-dn't	.	.	.
2AM	A:maj	4A	go	D	129.666	.
.	.	16e	_	.	.	.
.	.	16r	.	.	.	.
.	.	8A	They	.	.	.
=96	=96	=96	=96	=96	=96	=96
1AM	A:maj	4c#	ran	.	130.342	newline
.	.	4e	so	.	.	.
.	.	4e	fast	.	.	.
.	.	8e	that	.	.	.
.	.	8e	the	.	.	.
=97	=97	=97	=97	=97	=97	=97
1AM	A:maj	4e	hounds	.	131.708	.
.	.	8e	coul-	.	.	.
.	.	8e	-dn't	.	.	.
.	.	8B	catch	.	.	.
.	.	8A	'em	.	.	.
.	.	8r	.	.	.	.
.	.	8A	On	.	.	.
=98	=98	=98	=98	=98	=98	=98
1AM	A:maj	8c#	down	.	133.074	.
.	.	8e	the	.	.	.
.	.	8e	Mi-	.	.	.
.	.	8e	-ssi-	.	.	.
.	.	8e	-ssi-	.	.	.
.	.	8e	-ppi	.	.	.
.	.	8e	to	.	.	.
.	.	8e	the	.	.	.
=99	=99	=99	=99	=99	=99	=99
2EM	E:maj	8e	Gulf	.	134.44	.
.	.	8A	of	.	.	.
.	.	8B	Me-	.	.	.
.	.	8G#	-xi-	.	.	.
2AM	A:maj	2A	-co	D	135.123	.
=100	=100	=100	=100	=100	=100	=100
*>Letter>D	*>Letter>D	*>Letter>D	*>Letter>D	*>Letter>D	*>Letter>D	*>Letter>D
*>Label>Outro	*>Label>Outro	*>Label>Outro	*>Label>Outro	*>Label>Outro	*>Label>Outro	*>Label>Outro
1AM	A:maj	8e	_	.	135.806	newline
.	.	8r	.	.	.	.
.	.	4r	.	.	.	.
.	.	2r	.	.	.	.
=101	=101	=101	=101	=101	=101	=101
1AM	A:maj	1r	.	.	137.158	.
=102	=102	=102	=102	=102	=102	=102
1AM	A:maj	1r	.	.	138.51	.
=103	=103	=103	=103	=103	=103	=103
1AM	A:maj	1r	.	.	139.861	.
=104	=104	=104	=104	=104	=104	=104
*>Label>>Fadeout	*>Label>>Fadeout	*>Label>>Fadeout	*>Label>>Fadeout	*>Label>>Fadeout	*>Label>>Fadeout	*>Label>>Fadeout
1AM	A:maj	1r	.	.	141.213	newline
=105	=105	=105	=105	=105	=105	=105
1AM	A:maj	1r	.	.	142.553	.
=106	=106	=106	=106	=106	=106	=106
1AM	A:maj	1r	.	.	143.894	.
=107	=107	=107	=107	=107	=107	=107
1AM	A:maj	1r	.	.	145.234	.
=108	=108	=108	=108	=108	=108	=108
1AM	A:maj	1r	.	.	146.574	newline
=109	=109	=109	=109	=109	=109	=109
1AM	A:maj	1r	.	.	147.886	.
=110	=110	=110	=110	=110	=110	=110
1AM	A:maj	1r	.	.	149.198	.
=111	=111	=111	=111	=111	=111	=111
1AM	A:maj	1r	.	.	150.509	.
1r;	1r	r;	.	.	151.821	.
1r;	1r	r;	.	.	152.551	.
*-	*-	*-	*-	*-	*-	*-
!!!BillboardChartDate: 1959/04/27, 1959/08/24
!!!BillboardPeak: 1, 1
!!!BillboardWeeksOnChart: 20, 20
!!!COC: Johnny Horton
!!!EMD: I made the banjo introduction a part of the introduction. -Nat
!!!ENC: Nathaniel Condit-Schultz
!!!EST: Awating manual error checking and editing.
!!!OTL: The Battle Of New Orleans
!!!RDF**chordsym: original McGill chord annotation + (implied pitch class set, with bass pitch in first position)
!!!RDF**harmony: **recip + pitch class of root + harmonic quality
!!!RDF**leadinstrument: original McGill primary instrumentation annotation
!!!RDF**phrase: newline = linebreak in original McGill transcription
!!!RDF**timestamp: McGill audio timestamp in seconds
!!!RDT: 2017/01/12/
!!!SampleActualRank: 93, 25
!!!SampleID#: 500, 873
!!!SampleTargetRank: 93, 26
!!!MBID: 5b679242-8fa4-4d90-8645-03b67d25757d